!!!!SEGMENT: pl-wtm--r-704-m--005_moniuszko-stanislaw--widma-no-3-aniolek.krn
!!!cenid: 18xx:3061
!!!COM: Moniuszko, Stanisław
!!!COM-rismID: pe30008351
!!!CDT: 1819/05/05-1872/06/04
!!!CNT: Polish
!!!GTL: Widma
!!!OTL: No. 3 – Aniołek
!!!OMV: 005
!!!PDT: 1852
!!!AGN: Secular
!!!SMS-siglum: PL-Wtm
!!!SMS-shelfmark: R 704/M
!!!SMS-shelfwork: 001-005 G
!!!SMS-variant:
!!!SMS-altvar:
!!!NIFC-rismSourceID: 1001093778
!!!NIFC-rismChildID: 1001093778
!!!NIFC-islandoraID:
!!!URL-pdf-islandora:
!!!URL-scan:
!!!IIIF:
!!!ONB-nifc: UWAGA: skany 0021 (prawa strona). Następna część: Moderato-Guślarz („A kto prośby nie posłucha”). Nie wpisywać tekstu rosyjskiego i samodzielnych dialogów poza krótkimi didaskaliami.
!!!AIN: 1 alto 1 empty 1 forte 1 soprn 1 tenor
!!!key:
**kern	**kern	**dynam	**kern	**text	**text	**dynam	**kern	**text	**text	**dynam	**kern	**text	**text	**dynam	**kern	**text	**text	**dynam
*	*	*	*group1	*group1	*group1	*group1	*group1	*group1	*group1	*group1	*group1	*group1	*group1	*group1	*group1	*group1	*group1	*group1
*part5	*part5	*part5	*part4	*part4	*part4	*part4	*part3	*part3	*part3	*part3	*part2	*part2	*part2	*part2	*part1	*part1	*part1	*part1
*staff6	*staff5	*	*staff4	*staff4	*staff4	*	*staff3	*staff3	*staff3	*	*staff2	*staff2	*staff2	*	*staff1	*staff1	*staff1	*
*	*	*	*I""Chór/Coro	*	*	*	*I""Chór/Coro	*	*	*	*I""Chór/Coro	*	*	*	*I""Chór/Coro	*	*	*
*Iforte	*Iforte	*	*Iempty	*	*	*	*Itenor	*	*	*	*Ialto	*	*	*	*Isoprn	*	*	*
*I"Forte-piano._	*I"Forte-piano._	*	*I"Bassi_	*	*	*	*I"Tenori	*	*	*	*I"Alto.	*	*	*	*I"Soprani	*	*	*
*clefF4	*clefG2	*	*clefF4	*	*	*	*clefG2	*	*	*	*clefG2	*	*	*	*clefG2	*	*	*
*	*	*	*	*	*	*	*ITrd8c12	*	*	*	*	*	*	*	*	*	*	*
*k[b-]	*k[b-]	*	*k[b-]	*	*	*	*k[b-]	*	*	*	*k[b-]	*	*	*	*k[b-]	*	*	*
*F:	*F:	*	*F:	*	*	*	*F:	*	*	*	*F:	*	*	*	*F:	*	*	*
*M4/4	*M4/4	*	*M4/4	*	*	*	*M4/4	*	*	*	*M4/4	*	*	*	*M4/4	*	*	*
*met(c)	*met(c)	*	*met(c)	*	*	*	*met(c)	*	*	*	*met(c)	*	*	*	*met(c)	*	*	*
=1	=1	=1	=1	=1	=1	=1	=1	=1	=1	=1	=1	=1	=1	=1	=1	=1	=1	=1
*2\right	*	*	*	*	*	*	*	*	*	*	*	*	*	*	*	*	*	*
!	!LO:TX:t=P:problem=ppp(ianissimo possibile)=ppp.	!	!	!	!	!	!	!	!	!	!	!	!	!	!	!	!	!
!	!LO:TX:a:t=L'angioletto	!	!	!	!	!	!	!	!	!	!	!	!	!	!	!	!	!
!	!LO:TX:a:t=Aniołek	!LO:DY:rj:t=ppp.	!	!	!	!	!	!	!	!	!	!	!	!	!	!	!	!
2A\ 2F;\	2f/ 2c;/	ppp	1ryy	.	.	.	1ryy	.	.	.	1ryy	.	.	.	1ryy	.	.	.
*	*2\right	*	*	*	*	*	*	*	*	*	*	*	*	*	*	*	*	*
2A\ 2D;\	2a\ 2f;\	.	.	.	.	.	.	.	.	.	.	.	.	.	.	.	.	.
!!LO:LB:g=original
=2	=2	=2	=2	=2	=2	=2	=2	=2	=2	=2	=2	=2	=2	=2	=2	=2	=2	=2
*^	*^	*	*	*	*	*	*	*	*	*	*	*	*	*	*	*	*	*
*	*^	*	*	*	*	*	*	*	*	*	*	*	*	*	*	*	*	*	*	*
[2G/	2BB-\	2ryy	(<4dd/	2f\	.	1ryy	.	.	.	1ryy	.	.	.	1ryy	.	.	.	1ryy	.	.	.
.	.	.	4dd-X/	.	.	.	.	.	.	.	.	.	.	.	.	.	.	.	.	.	.
2G/]	2C\	4c;/	2cc;/)	2e\	.	.	.	.	.	.	.	.	.	.	.	.	.	.	.	.	.
.	.	4B-/	.	.	.	.	.	.	.	.	.	.	.	.	.	.	.	.	.	.	.
*	*v	*v	*	*	*	*	*	*	*	*	*	*	*	*	*	*	*	*	*	*	*
=3	=3	=3	=3	=3	=3	=3	=3	=3	=3	=3	=3	=3	=3	=3	=3	=3	=3	=3	=3	=3
!LO:TX:i:t=a tempo.`	!	!LO:TX:a:i:t=Lento:color=blue	!	!	!	!	!	!	!	!	!	!	!	!	!	!	!	!	!	!
2A/	1F\	[2.cc/	2f\	.	1ryy	.	.	.	1ryy	.	.	.	1ryy	.	.	.	1ryy	.	.	.
4G/	.	.	2e\	.	.	.	.	.	.	.	.	.	.	.	.	.	.	.	.	.
4c/	.	8cc/L]	.	.	.	.	.	.	.	.	.	.	.	.	.	.	.	.	.	.
.	.	8b-/J	.	.	.	.	.	.	.	.	.	.	.	.	.	.	.	.	.	.
=4	=4	=4	=4	=4	=4	=4	=4	=4	=4	=4	=4	=4	=4	=4	=4	=4	=4	=4	=4	=4
2.c/	2.F\	2.a/	2.f\	.	2.ryy	.	.	.	2.ryy	.	.	.	2.ryy	.	.	.	2.ryy	.	.	.
!!LO:LB:g=original
=	=	=	=	=	=	=	=	=	=	=	=	=	=	=	=	=	=	=	=	=
*	*	*	*	*	*	*	*above	*	*	*	*above	*	*	*	*	*	*	*	*	*
*	*	*	*	*	*	*	*color:red	*	*	*	*color:red	*	*	*color:red	*	*	*	*	*color:red	*
!	!	!	!	!	!	!	!	!LO:DY:rj	!	!	!	!LO:DY:rj:t=p.	!	!	!	!LO:DY:rj	!LO:TX:a:t=Chór.	!	!	!LO:DY:rj
4ryy	4ryy	4ryy	4ryy	.	4F\	Bo	Poi	p	8A\	Bo	Poi	p	[4f/	Poi	Bo	p	8f/	Bo	Poi	p
.	.	.	.	.	.	.	.	.	8B-\	słu-	ché	.	.	.	.	.	8g/	słu-	ché	.
*v	*v	*	*	*	*	*	*	*	*	*	*	*	*	*	*	*	*	*	*	*
*	*v	*v	*	*	*	*	*	*	*	*	*	*	*	*	*	*	*	*	*
=5	=5	=5	=5	=5	=5	=5	=5	=5	=5	=5	=5	=5	=5	=5	=5	=5	=5	=5
*	*	*	*2\right	*	*	*	*	*	*	*	*	*	*	*	*	*	*	*
1ryy	1ryy	.	[2.F\	zważ-	ché	.	4c\	-chaj-	no-	.	2f/]	.	.	.	4a/	-chaj-	no-	.
.	.	.	.	.	.	.	8A\	-my	-to	.	.	.	.	.	8f/	-my	-to	.
.	.	.	.	.	.	.	8A\	i	ne	.	.	.	.	.	8f/	i	ne	.
.	.	.	.	.	.	.	4d\	zważ-	sia e	.	4f/	ché	zważ-	.	4b-/	zważ-	sia e	.
.	.	.	8F\]	-my	n'am-	.	8c\	-my	n'am-	.	8f/	n'am-	-my	.	8a/	-my	n'am-	.
.	.	.	8F\	u	-ma-	.	8B-\	u	-ma-	.	8f/	-ma-	u	.	8g/	u-	-ma-	.
=6	=6	=6	=6	=6	=6	=6	=6	=6	=6	=6	=6	=6	=6	=6	=6	=6	=6	=6
*	*	*	*	*	*	*	*2\right	*	*	*	*	*	*	*	*	*	*	*
1ryy	1ryy	.	2F\	sie-	-e-	.	2c\	sie-	-e-	.	2f/	-e-	sie-	.	2a/	-sie-	-e-	.
.	.	.	8F\	-bie,	-stri	.	8F/	-bie,	-stri	.	8f/	-stri	-bie,	.	8f/	-bie,	-stri	.
.	.	.	8r	.	.	.	8r	.	.	.	8r	.	.	.	8r	.	.	.
.	.	.	4D\	że	che il	.	4B-\	że	che il	.	4f/	che il	że	.	4f/	że	che il	.
!!LO:LB:g=original
=7	=7	=7	=7	=7	=7	=7	=7	=7	=7	=7	=7	=7	=7	=7	=7	=7	=7	=7
1ryy	1ryy	.	4E-X\	we-	.	.	4B-\	we-	.	.	4f^/	.	we-	.	4g/	we-	ciel	.
*	*	*	*	*ij	*	*	*	*ij	*	*	*	*	*ij	*	*	*	*	*
!	!	!	!	!	!	!LO:DY:a	!	!	!	!LO:DY:a	!	!	!	!LO:DY:a	!	!	!	!LO:DY:a
.	.	.	8E-\	-dług	.	<	8B-\	-dług	.	<	8e-X/	.	-dług	<	8g/	-dług	in	<
.	.	.	8E-\	bo-	.	.	8B-\	bo-	.	.	8g/	.	bo-	.	8g/	bo-	sua	.
.	.	.	4D\	-że-	.	.	4B-\	-że-	.	.	4f/	.	-że-	.	4b-\	-że-	leg-	.
.	.	.	8D\	-go	.	.	8B-\	-go	.	.	8f/	.	-go	.	8cc\	-go	-ge	.
.	.	.	8D\	roz-	.	[	8B-\	roz-	.	[	8f/	.	roz-	[	8dd\	roz-	de-	[
=8	=8	=8	=8	=8	=8	=8	=8	=8	=8	=8	=8	=8	=8	=8	=8	=8	=8	=8
*	*	*	*	*	*	*	*	*	*	*	*	*	*	*	*2\right	*	*	*
!	!	!	!	!	!	!LO:DY:a	!	!	!	!LO:DY:a	!	!	!	!LO:DY:a	!LO:ACC:color=grey	!	!	!LO:DY:a
1ryy	1ryy	.	(4C\	-ka-	.	>	(4B-\	-ka-	.	>	(<4g/	.	-ka-	>	2ee-X\	-ka-	-cre-	>
.	.	.	4F\)	.	.	]	4A\)	.	.	.	4f/)	.	.	.	.	.	.	.
.	.	.	8BB-/	-zu	.	.	8B-\	-zu	.	]	8f/	.	-zu:	]	8dd\	-zu:	-ta:	]
.	.	.	8r	.	.	.	8r	.	.	.	8r	.	.	.	8r	.	.	.
.	.	.	8.B-^\	kto	.	.	8.d^\	kto	.	.	8.f^/	.	kto	.	8.dd^\	kto	a	.
.	.	.	16B-\	nie	.	.	16e\	nie	.	.	16f/	.	nie	.	16cc\	nie	chi i-	.
=9	=9	=9	=9	=9	=9	=9	=9	=9	=9	=9	=9	=9	=9	=9	=9	=9	=9	=9
1ryy	1ryy	.	4A^\	do-	.	.	4e\	do-	.	.	4g^>/	.	do-	.	4cc^\	do-	-gno-	.
.	.	.	8A\	-znał	.	.	8f\	-znał	.	.	8c/	.	-znał	.	8f/	-znał	-ra a-	.
.	.	.	8A\	go-	.	.	8c\	go-	.	.	8f/	.	go-	.	8f/	go-	-ma-	.
.	.	.	4A\	-ry-	.	.	4d\	-ry-	.	.	4f/	.	-ry-	.	4b-\	-ry-	-rez-	.
.	.	.	16G\LL	-czy	.	.	8.c#X\	-czy	.	.	8.e/	.	-czy	.	8.b-\	-czy	-ze	.
.	.	.	16F\JJ	.	.	.	.	.	.	.	.	.	.	.	.	.	.	.
.	.	.	16E\LL	ni	.	.	.	.	.	.	.	.	.	.	.	.	.	.
.	.	.	16D\JJ	.	.	.	16d\	ni	.	.	16d/	.	ni	.	16b-\	ni	ter	.
!!LO:PB:g=original
=10	=10	=10	=10	=10	=10	=10	=10	=10	=10	=10	=10	=10	=10	=10	=10	=10	=10	=10
*	*	*	*	*	*	*	*^	*	*	*	*	*	*	*	*	*	*	*
1ryy	1ryy	.	2D\	ra-	.	.	2G/	2.ryy	ra-	.	.	2e/	res-	ra-	.	2b-\	ra-	.	.
.	.	.	8C#X\	-zu,	.	.	8A/	.	-zu,	.	.	8e/	-tri,	-zu,	.	8a\	-zu,	.	.
.	.	.	8r	.	.	.	8r	.	.	.	.	8r	.	.	.	8r	.	.	.
!	!	!	!	!	!	!LO:DY:rj	!	!	!	!	!LO:DY:rj:t=pp.	!	!	!	!LO:DY:rj	!	!	!	!LO:DY:rj:t=pp.
.	.	.	8D\	ten	.	pp	8F/	8ryy	ten	.	pp	8d/	la	ten	pp	8f/ 8d/	ten	.	pp
.	.	.	8D\	nie/	.	.	8G/	8E\	nie	.	.	8d/	dol-	nie	.	8g/ 8e/	nie	.	.
*	*	*	*	*	*	*	*v	*v	*	*	*	*	*	*	*	*	*	*	*
=11	=11	=11	=11	=11	=11	=11	=11	=11	=11	=11	=11	=11	=11	=11	=11	=11	=11	=11
*	*	*	*	*	*	*	*	*	*	*	*	*	*	*	*^	*	*	*
*	*	*	*	*	*	*	*	*	*	*	*^	*	*	*	*	*	*	*	*
1ryy	1ryy	.	[1D\	do-	.	.	4A/ 4F/	do-	.	.	4d/	2.ryy	-cez-	do-	.	4a/ 4f/	2.ryy	do-	.	.
.	.	.	.	.	.	.	8A/ 8F/	-zna	.	.	8d/	.	-za	-zna	.	8a/ 8f/	.	-zna	.	.
.	.	.	.	.	.	.	8A/ 8F/	sło-	.	.	8d/	.	ce-	sło-	.	8a/ 8f/	.	sło-	.	.
.	.	.	.	.	.	.	4c/ 4A/	-dy-	.	.	4d/	.	-le-	-dy-	.	4cc\ 4a\	.	-dy-	.	.
.	.	.	.	.	.	.	4B-/ 4G/	-czy	.	.	4d/	8.d/@	-ste e	-czy	.	4b-\ 4g\	8.b-\@ 8.g\@	-czy	.	.
.	.	.	.	.	.	.	.	.	.	.	.	16d/@	.	.	.	.	16a\@ 16f\@	.	.	.
*	*	*	*	*	*	*	*	*	*	*	*v	*v	*	*	*	*	*	*	*	*
*	*	*	*	*	*	*	*	*	*	*	*	*	*	*	*v	*v	*	*	*
=12	=12	=12	=12	=12	=12	=12	=12	=12	=12	=12	=12	=12	=12	=12	=12	=12	=12	=12
*	*	*	*	*	*	*	*^	*	*	*	*	*	*	*	*^	*	*	*
*	*	*	*	*	*	*	*	*	*	*	*	*^	*	*	*	*	*	*	*	*
*	*	*	*^	*	*	*	*	*	*	*	*	*	*	*	*	*	*	*	*	*	*
1ryy	1ryy	.	2D\]	2.ryy	.	.	.	2A/	2F\	w nie-	.	.	2d/	2.ryy	vie-	w nie-	.	2a/	2f\	w nie-	.	.
.	.	.	8D\	.	-zna	.	.	8A/	8A\	-bie,	.	.	8d/	.	-ta,	-bie,	.	8f/	8f\	-bie,	.	.
.	.	.	8r	.	.	.	.	8r	8r	.	.	.	8r	.	.	.	.	8r	8r	.	.	.
.	.	.	8D\L	8D/@	nie	.	.	8A/L	8A\L	nie	.	.	4f/	8f/@	ce-	nie	.	8f/L	8f\L	nie	.	.
.	.	.	8D-X\J	8D-X/@	.	.	.	8B-/J	8B-\J	.	.	.	.	8f/@	.	.	.	8g/J	8g\J	.	.	.
*	*	*	*v	*v	*	*	*	*	*	*	*	*	*	*	*	*	*	*	*	*	*	*
*	*	*	*	*	*	*	*	*	*	*	*	*v	*v	*	*	*	*	*	*	*	*
=13	=13	=13	=13	=13	=13	=13	=13	=13	=13	=13	=13	=13	=13	=13	=13	=13	=13	=13	=13	=13
*	*	*	*^	*	*	*	*	*	*	*	*	*	*	*	*	*	*	*	*	*
!	!	!	!	!	!	!	!LO:DY:a	!	!	!	!	!LO:DY:a	!	!	!	!LO:DY:a	!	!	!	!	!LO:DY:a
1ryy	1ryy	.	4C\	2ryy	/do-	.	<	4c/	4c\	do-	.	<	4f/	-le-	do-	<	4a/	4a\	do-	.	<
.	.	.	8C\	.	-zna	.	.	8A/	4ryy	-zna	.	.	8f/	-ste-	-zna	.	8f/	4ryy	-zna	.	.
.	.	.	8C/	.	sło-	.	[	8F/	.	sło-	.	[	8f/	-dol-	sło-	[	8f/	.	sło-	.	[
!	!	!	!	!	!	!	!LO:DY:a	!	!	!	!	!LO:DY:a	!	!	!	!LO:DY:a	!	!	!	!	!LO:DY:a
.	.	.	4.C\	4C/i	-dy	.	>	(4F/	2ryy	-dy-	.	>	(4d/	-cez-	-dy-	>	(4b-\	2ryy	-dy-	.	>
.	.	.	.	8C/i	.	.	.	8E/)	.	.	.	.	8c/)	-za	.	.	8a\)	.	.	.	.
.	.	.	8C\	8ryy	czy	.	]	8c\	.	-czy	.	]	8B-/	è	-czy	]	8g\	.	-czy	.	]
*	*	*	*	*	*Xij	*	*	*	*	*Xij	*	*	*	*	*Xij	*	*	*	*	*	*
*	*	*	*v	*v	*	*	*	*	*	*	*	*	*	*	*	*	*v	*v	*	*	*
*	*	*	*	*	*	*	*v	*v	*	*	*	*	*	*	*	*	*	*	*
!!LO:LB:g=original
=14	=14	=14	=14	=14	=14	=14	=14	=14	=14	=14	=14	=14	=14	=14	=14	=14	=14	=14
1ryy	1ryy	.	1F/ 1FF/	w nie-	.	.	1c/	w nie-	.	.	1A/	.	w nie-	.	1f/	w nie-	vie-	.
=15	=15	=15	=15	=15	=15	=15	=15	=15	=15	=15	=15	=15	=15	=15	=15	=15	=15	=15
1ryy	1ryy	.	4FF/	-bie.	.	.	4F/	-bie	.	.	4A/	.	-bie.	.	4f/	-bie.	-ta	.
.	.	.	4r	.	.	.	4r	.	.	.	4r	.	.	.	4r	.	.	.
.	.	.	2r	.	.	.	2r	.	.	.	2r	.	.	.	2r	.	.	.
==	==	==	==	==	==	==	==	==	==	==	==	==	==	==	==	==	==	==
*-	*-	*-	*-	*-	*-	*-	*-	*-	*-	*-	*-	*-	*-	*-	*-	*-	*-	*-
!!!system-decoration: [s1,s2,s3,s4][(s5,s6)]
!!!RDF**kern: > = above
!!!RDF**kern: < = below
!!!RDF**kern: @ = marked note, color=grey
!!!RDF**kern: i = marked note, color=red
!!!ENC: Anastazja Marusiak
!!!END: 2021-08-22
!!!EED: Andrzej Borzym
!!!EEV: 2021-10-11
!!!YEC: Copyright 2022 Narodowy Instytut Fryderyka Chopina (https://polishscores.org)
!!!YEM: License CC-BY-4.0 (https://creativecommons.org/licenses/by/4.0)
